Origami/24x24/apps/unity-tweak-tool.svg

<svg width="24" height="24" version="1" xmlns="http://www.w3.org/2000/svg">
 <circle cx="12" cy="12.5" r="10" style="opacity:.2"/>
 <circle cx="12" cy="12" r="10" style="fill:#a43b84"/>
 <path d="m8 7.5v6s0 4 3 4h5v-10h-2v8h-2.5c-1.5 0-1.5-2-1.5-2v-6z" style="opacity:.2"/>
 <path d="m8 7v6s0 4 3 4h5v-10h-2v8h-2.5c-1.5 0-1.5-2-1.5-2v-6z" style="fill:#ffffff"/>
 <path d="M 12,2 A 10,10 0 0 0 2,12 10,10 0 0 0 2,12.293 10,10 0 0 1 12,2.5 10,10 0 0 1 22,12.207 10,10 0 0 0 22,12 10,10 0 0 0 12,2 Z" style="fill:#ffffff;opacity:.1"/>
 <circle cx="18" cy="18" r="5" style="fill:#42a1cd"/>
 <path d="m17.244 15-0.067 0.79a2.3784 2.3572 0 0 0 -0.695 0.399l-0.724-0.339-0.757 1.3 0.658 0.452a2.3784 2.3572 0 0 0 -0.037 0.398 2.3784 2.3572 0 0 0 0.035 0.399l-0.657 0.452 0.757 1.299 0.723-0.337a2.3784 2.3572 0 0 0 0.697 0.395l0.066 0.792h1.514l0.066-0.79a2.3784 2.3572 0 0 0 0.696 -0.398l0.724 0.338 0.757-1.299-0.658-0.453a2.3784 2.3572 0 0 0 0.036 -0.398 2.3784 2.3572 0 0 0 -0.034 -0.399l0.656-0.45-0.757-1.3-0.723 0.338a2.3784 2.3572 0 0 0 -0.696 -0.396l-0.067-0.792h-1.513zm0.757 2.143a0.86485 0.85715 0 0 1 0.864 0.857 0.86485 0.85715 0 0 1 -0.865 0.857 0.86485 0.85715 0 0 1 -0.865 -0.857 0.86485 0.85715 0 0 1 0.865 -0.857z" style="fill:#ffffff"/>
</svg>

<svg xmlns="http://www.w3.org/2000/svg" width="24" height="24" version="1">
 <circle style="opacity:0.2" cx="12" cy="12.5" r="10"/>
 <circle style="fill:#a43b84" cx="12" cy="12" r="10"/>
 <path style="opacity:0.2" d="M 8,7.5 V 13.5 C 8,13.5 8,17.5 11,17.5 H 16 V 7.5 H 14 V 15.5 H 11.5 C 10,15.5 10,13.5 10,13.5 V 7.5 Z"/>
 <path style="fill:#ffffff" d="M 8,7 V 13 C 8,13 8,17 11,17 H 16 V 7 H 14 V 15 H 11.5 C 10,15 10,13 10,13 V 7 Z"/>
 <path style="opacity:0.1;fill:#ffffff" d="M 12,2 A 10,10 0 0 0 2,12 10,10 0 0 0 2,12.293 10,10 0 0 1 12,2.5 10,10 0 0 1 22,12.207 10,10 0 0 0 22,12 10,10 0 0 0 12,2 Z"/>
 <circle style="fill:#42a1cd" cx="18" cy="18" r="5"/>
 <path style="fill:#ffffff" d="M 17.244,15 17.177,15.79 A 2.3784,2.3572 0 0 0 16.482,16.189 L 15.758,15.85 15.001,17.15 15.659,17.602 A 2.3784,2.3572 0 0 0 15.622,18 2.3784,2.3572 0 0 0 15.657,18.399 L 15,18.851 15.757,20.15 16.48,19.813 A 2.3784,2.3572 0 0 0 17.177,20.208 L 17.243,21 H 18.757 L 18.823,20.21 A 2.3784,2.3572 0 0 0 19.519,19.812 L 20.243,20.15 21,18.851 20.342,18.398 A 2.3784,2.3572 0 0 0 20.378,18 2.3784,2.3572 0 0 0 20.344,17.601 L 21,17.151 20.243,15.851 19.52,16.189 A 2.3784,2.3572 0 0 0 18.824,15.793 L 18.757,15.001 H 17.244 Z M 18.001,17.143 A 0.86485,0.85715 0 0 1 18.865,18 0.86485,0.85715 0 0 1 18,18.857 0.86485,0.85715 0 0 1 17.135,18 0.86485,0.85715 0 0 1 18,17.143 Z"/>
</svg>
